X:17
T:Atkins's. ThoH.017
Q:1/2=90
M:C
L:1/8
B:Thompson's Compleat Collection of 120 Favourite Hornpipes.
Z:Village Music Project, Simon Wilson 2016
O:England.
K:Eb
B,EDF EGFA|GcBAG2FE|DFAG FEDC|BdfAG2FE|
B,EDF EGFA|GcBAG2FE|edcB AGFE|B,2D2!fine!E4:|
gede fbag|fedcB4|edcB cBAG|AFGAG2FE|
gede fbag|fedcB4|fedc dfbe|dbca!D.C.!B4|]

